X:1
T:Title
%%score { ( 1 3 ) | ( 2 4 ) }
L:1/8
Q:1/4=124
M:3/4
K:G
V:1 treble nm="Grand Piano"
V:3 treble 
V:2 treble 
V:4 treble 
V:1
 B4 B2 | [GB]2 [FA]2 G2 | [EG]4 [EG]2 | A2 z2 z2 | D4 G2 | G2 F2 G2 | A2 c2 B2 | [FA]6 | %8
w: Frank~M.~Davis *||||||||
 [GB]4 [GB]2 | [GB]2 [FA]2 G2 | [EG]4 [EG]2 | A2 z2 z2 | D2 G2 A2 | B2 c2 [DGB]2 | z2 z2 [FA]2 | %15
w: |||||||
 G6 | d4 B2 | e4 d2 | d2 c2 B2 | [Fd]4 [Fc]2 | [Fc]4 [Fc]2 | [Fc]2 [GB]2 [Ac]2 | [Bd]4 [Ac]2 | B6 | %24
w: |||||||||
 B4 B2 | [GB]2 [FA]2 G2 | [EG]4 [EG]2 | A2 z2 z2 | D2 G2 A2 | B2 c2 [DGB]2 | [EGA]4 .[DFA]2 | %31
w: |||||||
[M:7/4] [B,G]6 z2 z2 z4 |] %32
w: |
V:2
 [G,DG]4 [G,DG]2 | [G,D]2 [D,C]2 [E,B,]2 | [C,C]4 [C,C]2 | [C,C]4 [C,G,C]2 | [G,B,]4 [G,B,D]2 | %5
 [G,B,D]2 [D,A,C]2 [E,G,B,]2 | [F,CD]2[K:treble] [A,D]2 [G,DG]2 | [D,D]6 | [G,D]4 [G,D]2 | %9
 [G,D]2 [D,C]2 [E,B,]2 | [C,C]4 [C,C]2 | [C,C]4 [C,G,C]2 | B,2 z2 z2 | [G,G]4[K:bass] z2 | %14
 C,4 D,2 | [G,B,]6 | [G,B,G]4 [G,DG]2 | [G,CG]4 [G,B,G]2 | [DG]4 z2 | [D,D]4 [D,D]2 | %20
 [D,D]4 [D,C]2 | [D,D]4 [D,D]2 | [D,D]4 [D,D]2 | [G,DG]6 | [G,DG]4 [G,DG]2 | %25
 [G,D]2 [D,C]2 [E,B,]2 | [C,C]4 [C,C]2 | [C,C]4 [C,G,C]2 | B,2 z2 z2 | [G,G]4[K:bass] z2 | %30
 C,4 z C |[M:7/4] G,6 z2 z2 z4 |] %32
V:3
 x6 | x6 | x6 | E2- [EG]2 E2 | x6 | x6 | x6 | x6 | x6 | x6 | x6 | E2- [EG]2 E2 | x6 | x6 | %14
 [EGA]4 DC | x6 | x6 | x6 | x6 | x6 | x6 | x6 | x6 | x6 | x6 | x6 | x6 | E2- [EG]2 E2 | x6 | x6 | %30
 x6 |[M:7/4] x14 |] %32
V:4
 x6 | x6 | x6 | x6 | x6 | x6 | x2[K:treble] x4 | x6 | x6 | x6 | x6 | x6 | G,2- [G,B,D]2 [D,D]2 | %13
 D2 E2[K:bass] G,2 | x6 | x6 | x6 | x6 | B,2 A,2 [G,DG]2 | x6 | x6 | x6 | x6 | x6 | x6 | x6 | x6 | %27
 x6 | G,2- [G,B,D]2 [D,D]2 | D2 E2[K:bass] G,2 | z2 z2 D,2 |[M:7/4] x14 |] %32

